client/src/css/themes/light/img/search_selection.svg

<svg xmlns="http://www.w3.org/2000/svg" viewBox="0 0 24 24"><path fill="none" d="M0 0h24v24H0V0z"/><path d="M15.061 13.487c.424-.69.668-1.51.668-2.38a4.59 4.59 0 00-4.583-4.583 4.588 4.588 0 00-4.583 4.583 4.588 4.588 0 004.583 4.585c.87 0 1.687-.244 2.377-.666l2.052 2.051c.213.211.493.315.771.315s.555-.104.768-.315a1.082 1.082 0 000-1.537l-2.053-2.053zm-6.325-2.38a2.412 2.412 0 012.409-2.409 2.412 2.412 0 010 4.823 2.415 2.415 0 01-2.409-2.414zM12 24c-.409 0-.814-.021-1.213-.061l.316-3.199a8.86 8.86 0 001.842-.006l.346 3.195c-.424.048-.853.071-1.291.071zm-3.673-.575c-.8-.257-1.572-.601-2.295-1.018l1.6-2.788a8.615 8.615 0 001.679.746l-.984 3.06zm7.413-.023l-1-3.055a8.707 8.707 0 001.677-.755l1.612 2.778c-.722.425-1.493.773-2.289 1.032zM4 20.938a12.333 12.333 0 01-1.684-1.86l2.586-1.901c.363.496.78.955 1.236 1.365L4 20.938zm16.057-.047L17.9 18.506a8.907 8.907 0 001.227-1.372l2.602 1.884a12.484 12.484 0 01-1.672 1.873zM1.054 16.904a12.011 12.011 0 01-.784-2.393l3.135-.677c.129.601.322 1.188.574 1.748l-2.925 1.322zm21.921-.063l-2.929-1.309a8.74 8.74 0 00.562-1.746l3.142.655a12.12 12.12 0 01-.775 2.4zM.396 12.005L0 12.003c0-.876.087-1.717.258-2.533l3.139.665a8.912 8.912 0 00-.19 1.834l-2.811.036zm20.398-.055a8.967 8.967 0 00-.194-1.834l3.137-.669c.176.82.264 1.66.265 2.498l-3.208.005zM3.963 8.384l-2.93-1.308a12 12 0 011.255-2.178L4.883 6.79a8.752 8.752 0 00-.92 1.594zm16.068-.014a8.838 8.838 0 00-.924-1.593l2.591-1.896a12.17 12.17 0 011.26 2.174L20.031 8.37zM6.114 5.419L3.966 3.031a12.046 12.046 0 012.026-1.48L7.6 4.334a8.795 8.795 0 00-1.486 1.085zm11.761-.01a8.905 8.905 0 00-1.488-1.083l1.604-2.785c.722.417 1.404.914 2.027 1.477l-2.143 2.391zm-8.6-1.826L8.282.525c.795-.26 1.62-.436 2.454-.523l.336 3.198a8.795 8.795 0 00-1.797.383zm5.433-.005a8.66 8.66 0 00-1.796-.379L13.241 0c.834.086 1.659.26 2.454.519l-.987 3.059z"/></svg>

<?xml version="1.0" encoding="utf-8"?>
<!DOCTYPE svg PUBLIC "-//W3C//DTD SVG 1.1//EN" "http://www.w3.org/Graphics/SVG/1.1/DTD/svg11.dtd">
<svg version="1.1" id="Layer_1" xmlns="http://www.w3.org/2000/svg" xmlns:xlink="http://www.w3.org/1999/xlink" x="0px" y="0px"
	 width="24px" height="24px" viewBox="0 0 24 24" enable-background="new 0 0 24 24" xml:space="preserve">
<path fill="none" d="M0,0h24v24H0V0z"/>
<path d="M15.061,13.487c0.424-0.69,0.668-1.51,0.668-2.38c0-2.526-2.057-4.583-4.583-4.583c-2.527,0-4.583,2.056-4.583,4.583
	c0,2.531,2.057,4.585,4.583,4.585c0.87,0,1.687-0.244,2.377-0.666l2.052,2.051c0.213,0.211,0.493,0.315,0.771,0.315
	s0.555-0.104,0.768-0.315c0.427-0.426,0.427-1.11,0-1.537L15.061,13.487z M8.736,11.107c0-1.328,1.081-2.409,2.409-2.409
	c1.329,0,2.41,1.081,2.41,2.409c0,1.332-1.082,2.414-2.41,2.414S8.736,12.437,8.736,11.107z"/>
<g>
	<path d="M12,24c-0.409,0-0.814-0.021-1.213-0.061l0.316-3.199c0.607,0.062,1.238,0.06,1.842-0.006l0.346,3.195
		C12.867,23.977,12.438,24,12,24z M8.327,23.425c-0.8-0.257-1.572-0.601-2.295-1.018l1.6-2.788c0.529,0.307,1.093,0.557,1.679,0.746
		L8.327,23.425z M15.74,23.402l-1-3.055c0.583-0.191,1.146-0.445,1.677-0.755l1.612,2.778C17.307,22.795,16.536,23.143,15.74,23.402
		z M4,20.938c-0.622-0.56-1.188-1.185-1.684-1.86l2.586-1.901c0.363,0.496,0.78,0.955,1.236,1.365L4,20.938z M20.057,20.891
		L17.9,18.506c0.457-0.416,0.869-0.876,1.227-1.372l2.602,1.884C21.238,19.695,20.676,20.324,20.057,20.891z M1.054,16.904
		c-0.344-0.768-0.608-1.571-0.784-2.393l3.135-0.677c0.129,0.601,0.322,1.188,0.574,1.748L1.054,16.904z M22.975,16.841
		l-2.929-1.309c0.246-0.558,0.437-1.144,0.562-1.746l3.142,0.655C23.574,15.271,23.314,16.077,22.975,16.841z M0.396,12.005
		L0,12.003c0-0.876,0.087-1.717,0.258-2.533l3.139,0.665c-0.126,0.598-0.19,1.215-0.19,1.834L0.396,12.005z M20.794,11.95
		c-0.001-0.616-0.067-1.232-0.194-1.834l3.137-0.669c0.176,0.82,0.264,1.66,0.265,2.498L20.794,11.95z M3.963,8.384l-2.93-1.308
		c0.34-0.766,0.762-1.499,1.255-2.178L4.883,6.79C4.521,7.287,4.212,7.824,3.963,8.384z M20.031,8.37
		c-0.252-0.562-0.562-1.097-0.924-1.593l2.591-1.896c0.493,0.678,0.917,1.409,1.26,2.174L20.031,8.37z M6.114,5.419L3.966,3.031
		C4.589,2.468,5.27,1.97,5.992,1.551L7.6,4.334C7.07,4.641,6.571,5.006,6.114,5.419z M17.875,5.409
		c-0.459-0.413-0.96-0.777-1.488-1.083l1.604-2.785c0.722,0.417,1.404,0.914,2.027,1.477L17.875,5.409z M9.275,3.583L8.282,0.525
		c0.795-0.26,1.62-0.436,2.454-0.523L11.072,3.2C10.461,3.264,9.857,3.394,9.275,3.583z M14.708,3.578
		c-0.581-0.189-1.187-0.317-1.796-0.379L13.241,0c0.834,0.086,1.659,0.26,2.454,0.519L14.708,3.578z"/>
</g>
</svg>
